svgs/sharp-light/suitcase-rolling.svg

<svg xmlns="http://www.w3.org/2000/svg" viewBox="0 0 384 512"><!--! Font Awesome Pro 6.6.0 by @fontawesome - https://fontawesome.com License - https://fontawesome.com/license (Commercial License) Copyright 2024 Fonticons, Inc. --><path d="M112 0L96 0l0 16 0 112-64 0L0 128l0 32L0 448l0 32 32 0 32 0 0 16 0 16 32 0 0-16 0-16 192 0 0 16 0 16 32 0 0-16 0-16 32 0 32 0 0-32 0-288 0-32-32 0-64 0 0-112 0-16L272 0 112 0zM320 448l-32 0L96 448l-32 0-32 0 0-288 80 0 160 0 80 0 0 288-32 0zM256 128l-128 0 0-96 128 0 0 96zM96 240l0 32 16 0 160 0 16 0 0-32-16 0-160 0-16 0zm0 96l0 32 16 0 160 0 16 0 0-32-16 0-160 0-16 0z"/></svg>

<svg xmlns="http://www.w3.org/2000/svg" viewBox="0 0 384 512"><!--! Font Awesome Pro 6.4.2 by @fontawesome - https://fontawesome.com License - https://fontawesome.com/license (Commercial License) Copyright 2023 Fonticons, Inc. --><path d="M112 0H96V16 128H32 0v32V448v32H32 64v16 16H96V496 480H288v16 16h32V496 480h32 32V448 160 128H352 288V16 0H272 112zM320 448H288 96 64 32V160h80H272h80V448H320zM256 128H128V32H256v96zM96 240v32h16H272h16V240H272 112 96zm0 96v32h16H272h16V336H272 112 96z"/></svg>
